X: 3030
T: INVERARAY CROSS
C: Carl Volti
Q:"Reel."
R: Reel.
%R:reel
B: James Kerr "Merry Melodies" v.3 p.6 #30
Z: 2016 John Chambers <jc:trillian.mit.edu>
M: C
L: 1/8
K: Bm
uA2 |:\
d2fd B2dB | ABAG (FD)D2 |\
FGAB cdef |[1 eBBd c2A2 :|[2 egec d2A2 |]\
defg a2(fd) |
gfed cABc |\
defg a2(fd) | egec d2A2 |\
defg a2(fd) | gfed cBAG |\
FGAB cdef | egec d2 |]

%%sep 1 1 500
%%sep 1 1 500

